X: 34265
T: Reign Of Love
R: reel
M: 4/4
K: Dminor
|:D2EF G2A2|F4E4|G2FE D2G2|FED2 E4|
D2EF G2A2|F4E4|G2FE D2C2|D8:|
d2A2c2G2-|G2A2F4|G2FED2G2|FED2E4|
d2A2c2G2-|G2A2F4|G2FED2C2|D8|
d2A2c2G2-|G2A2F4|G2FED2G2|FED2E4|
D2EF G2A2|F4E4|G2FE D2C2|D8||

